packages/icons/raw/imported/NotificationsNotifications.svg

<svg width="32" height="32" viewBox="0 0 32 32" fill="none" xmlns="http://www.w3.org/2000/svg">
<path d="M19.3077 25.5V26V25.5ZM10.5 25.5V25V25.5ZM6.5 12.6923H7H6.5ZM6.5 21.5H6H6.5ZM18.9231 9.19233C19.1992 9.19233 19.4231 8.96847 19.4231 8.69233C19.4231 8.41619 19.1992 8.19233 18.9231 8.19233V9.19233ZM10.5 8.69233V8.19233V8.69233ZM23.8077 13.0769C23.8077 12.8008 23.5838 12.5769 23.3077 12.5769C23.0315 12.5769 22.8077 12.8008 22.8077 13.0769H23.8077ZM23.3077 21.5H23.8077H23.3077ZM25 9.78846C25 11.3285 23.7516 12.5769 22.2115 12.5769V13.5769C24.3038 13.5769 26 11.8808 26 9.78846H25ZM22.2115 12.5769C20.6715 12.5769 19.4231 11.3285 19.4231 9.78846H18.4231C18.4231 11.8808 20.1192 13.5769 22.2115 13.5769V12.5769ZM19.4231 9.78846C19.4231 8.24844 20.6715 7 22.2115 7V6C20.1192 6 18.4231 7.69615 18.4231 9.78846H19.4231ZM22.2115 7C23.7516 7 25 8.24844 25 9.78846H26C26 7.69615 24.3038 6 22.2115 6V7ZM19.3077 25L10.5 25V26L19.3077 26V25ZM6 12.6923L6 21.5H7L7 12.6923H6ZM18.9231 8.19233H10.5V9.19233H18.9231V8.19233ZM22.8077 13.0769V21.5H23.8077V13.0769H22.8077ZM7 12.6923C7 10.7593 8.56701 9.19233 10.5 9.19233V8.19233C8.01472 8.19233 6 10.207 6 12.6923H7ZM10.5 25C8.56701 25 7 23.433 7 21.5H6C6 23.9853 8.01472 26 10.5 26V25ZM19.3077 26C21.793 26 23.8077 23.9853 23.8077 21.5H22.8077C22.8077 23.433 21.2407 25 19.3077 25V26Z" fill="black"/>
</svg>

<svg width="32" height="32" fill="none" xmlns="http://www.w3.org/2000/svg"><path d="M19.308 25.5v.5-.5Zm-8.808 0V25v.5Zm-4-12.808H7h-.5Zm0 8.808H6h.5ZM18.923 9.192a.5.5 0 0 0 0-1v1Zm-8.423-.5v-.5.5Zm13.308 4.385a.5.5 0 0 0-1 0h1Zm-.5 8.423h.5-.5ZM25 9.788a2.788 2.788 0 0 1-2.788 2.789v1A3.788 3.788 0 0 0 26 9.788h-1Zm-2.788 2.789a2.788 2.788 0 0 1-2.789-2.789h-1a3.788 3.788 0 0 0 3.789 3.789v-1Zm-2.789-2.789A2.788 2.788 0 0 1 22.212 7V6a3.788 3.788 0 0 0-3.789 3.788h1ZM22.212 7A2.788 2.788 0 0 1 25 9.788h1A3.788 3.788 0 0 0 22.212 6v1Zm-2.904 18H10.5v1h8.808v-1ZM6 12.692V21.5h1v-8.808H6Zm12.923-4.5H10.5v1h8.423v-1Zm3.885 4.885V21.5h1v-8.423h-1ZM7 12.692a3.5 3.5 0 0 1 3.5-3.5v-1a4.5 4.5 0 0 0-4.5 4.5h1ZM10.5 25A3.5 3.5 0 0 1 7 21.5H6a4.5 4.5 0 0 0 4.5 4.5v-1Zm8.808 1a4.5 4.5 0 0 0 4.5-4.5h-1a3.5 3.5 0 0 1-3.5 3.5v1Z" fill="#000"/></svg>
